X: 334
T:O Venus bant
N: Derived from Jos2729-O_Venus_bant.krn
C: Josquin des Prez
%%abc-version 2.0
%%abcx-abcm2ps-target-version 5.9.1 (29 Sep 2008)
%%abc-creator hum2abc beta
%%abcx-conversion-date 2019/02/12 16:15:54
%%abc-edited-by Jesse Rodin
%%abc-edited-by Jesse Rodin; Victoria Chang 2011/07/26/
%%abcx-initial-encoding-date 2011/07/26/
%%humdrum-veritas 2500630331
%%humdrum-veritas-data 3313210721
%%linebreak <none>
%%barnumbers 0
L: 1/4
M: 2/1
Q: 1/2=120
V: 1 clef=treble
V: 2 clef=treble-8
V: 3 clef=bass
K: F
[V:1] G3FD2E2- | 
[V:2] G8 | 
[V:3] G,,3A,,B,,2C,2- | 
[V:1] E2F3EF2 | 
[V:2] A4A4 | 
[V:3] C,2D,3C,D,2 | 
[V:1] G4D2E2 | 
[V:2] G8 | 
[V:3] E,3F,G,F,G,2- | 
[V:1] D2G3A=B2 | 
[V:2] z4G4 | 
[V:3] G,A,B,4A,G, | 
[V:1] c=BAG^F3E | 
[V:2] A4A4 | 
[V:3] F,3E,D,4 | 
[V:1] G4G4 | 
[V:2] G8 | 
[V:3] G,,2C,3D,E,2 | 
[V:1] G3FE2D2 | 
[V:2] z4G4 | 
[V:3] C,2E,3F,G,2 | 
[V:1] E2C2c4 | 
[V:2] c6c2 | 
[V:3] C,2F,3G,A,2 | 
[V:1] A4AGA=B | 
[V:2] c4c3=B | 
[V:3] F,2A,3=B,CD | 
[V:1] c4A2c2- | 
[V:2] A4A3G | 
[V:3] C2F,3G,A,B, | 
[V:1] c=BAGF3E | 
[V:2] A4A4 | 
[V:3] A,2D,3E,F,G, | 
[V:1] A2A4GF | 
[V:2] c4c4 | 
[V:3] F,2F,,3G,,A,,B,, | 
[V:1] E3FG3F | 
[V:2] G4G4 | 
[V:3] C,3B,,G,,3A,, | 
[V:1] D2F3GA2 | 
[V:2] d8 | 
[V:3] B,,C,D,4F,2 | 
[V:1] G2d4=B2- | 
[V:2] =B4G4 | 
[V:3] G,A,=B,CD2G,2 | 
[V:1] B2AG^F3E | 
[V:2] A8 | 
[V:3] F,3E,D,2D,2 | 
[V:1] G8 | 
[V:2] G8- | 
[V:3] G,,3A,,B,,2C,2 | 
[V:1] z4G4 | 
[V:2] G8 | 
[V:3] G,,2C,3D,E,2- | 
[V:1] G4G4 | 
[V:2] z4G4 | 
[V:3] E,F,G,3F,E,2 | 
[V:1] A4A4 | 
[V:2] d4d4 | 
[V:3] D,2F,3E,F,2 | 
[V:1] G6c2- | 
[V:2] e4e4 | 
[V:3] C,2C3=B,C2 | 
[V:1] c2=BAB4 | 
[V:2] d4d4 | 
[V:3] G,4z2G,2 | 
[V:1] c3=BG2A2 | 
[V:2] c8 | 
[V:3] A,2G,F,E,2F,2 | 
[V:1] G2A4GF | 
[V:2] z4c4 | 
[V:3] C,2F,3G,A,2- | 
[V:1] E2A4A2 | 
[V:2] c4c4 | 
[V:3] A,G,F,3G,A,=B, | 
[V:1] A4A4 | 
[V:2] A4A4 | 
[V:3] C4C2F,,2- | 
[V:1] A6GF | 
[V:2] c4c4 | 
[V:3] F,,F,,F,,3G,,A,,B,, | 
[V:1] E6G2- | 
[V:2] G4G4 | 
[V:3] C,4C,2G,,2- | 
[V:1] GA=B2c2A2- | 
[V:2] d4c4 | 
[V:3] G,,2G,2A,2F,2 | 
[V:1] A2GFG4 | 
[V:2] =B8 | 
[V:3] G,4z2G,2 | 
[V:1] A4A4 | 
[V:2] A8- | 
[V:3] D,6C,B,, | 
[V:1] c6=B2 | 
[V:2] A8 | 
[V:3] A,,2A,3=B,C2- | 
[V:1] A6GF | 
[V:2] z4A4 | 
[V:3] C=B,A,G,F,2E,D, | 
[V:1] E3FG2A2- | 
[V:2] c4c4 | 
[V:3] C,3D,E,2F,2- | 
[V:1] A=Bc3BAG | 
[V:2] A4A4 | 
[V:3] F,G,A,3G,F,E, | 
[V:1] F2B3AGF | 
[V:2] d8 | 
[V:3] D,C,B,,A,,G,,2G,A, | 
[V:1] G2F2G4 | 
[V:2] =B4G4 | 
[V:3] =B,G,D2G,,A,,B,,G,, | 
[V:1] F2G4^F2 | 
[V:2] A8 | 
[V:3] D,2C,2D,4 | 
[V:1] G8 |]  
[V:2] G8 |]  
[V:3] G,,8 |]  



